X:1
T:Blessèd Bible
T:Blessèd Bible
T:Frederick Augustus Fillmore
T:Fronia Smith, 1890
T:Public Domain Courtesy of the Cyber Hymnal™
C:Frederick Augustus Fillmore
Z:Public Domain
Z:Courtesy of the Cyber Hymnal™
%%score ( 1 2 ) ( 3 4 )
L:1/8
Q:1/4=95
M:3/4
K:C
V:1 treble 
V:2 treble 
V:3 bass 
V:4 bass 
V:1
 [CE][DF] | [EG]2 [Ec]2 [CE][FA] | [FA]2 [EG]2 [DF][CE] | [B,D]2 [FA]2 [EG][DF] | [CE]4 [CE][DF] | %5
w: 1.~Bless- èd|Bi- ble! pre- cious|trea- sure! Will of|Him who reigns a-|bove, Source of|
w: 2.~When as-|sailed by doubt or|sor- row, ’Tis this|Book a- lone can|give Hope and|
w: 3.~Bless- èd|Bi- ble! much I|love thee! Naught so|dear has e’er been|giv’n. I will|
 [EG]2 [Ec]2 [CE][FA] | [FA]2 [EG]2 [Ec][Ec] | [DB]2 [DG]2 [DB][DA] | [DG]4 || %9
w: bless- ings with- out|mea- sure, Tell- ing|of a Sav- ior’s|love.|
w: cour- age for the|mor- row, And all|doubt and fear re-|move.|
w: pon- der well and|heed thee, Point- ing|out the way to|Heav’n.|
[M:9/8]"^Refrain" ([DF][CE])[B,D] | [CE]2 [DF] [EG]2 ([DF] [CE])[B,D] | %11
w: ||
w: I * will|trea- sure thee, Fond- * ly|
w: ||
 [CE]2 [DF] [EG]3 [EG]2 [EG] | [Ec]2 [Fd] [Ge]3 [Gc]3 | (cB)[=FA] [GB]3 ([FA][EG])[DF] | %14
w: |||
w: trea- sure thee, Bless- èd|Word of Life, I’ll|trea- * sure thee; I * will|
w: |||
 [CE]2 [DF] [EG]3 ([DF][CE])[B,D] | [CE]2 [DF] [EG]3 [EG]2 [EG] | [Ec]2 [Fd] [Ge]3 [Gc]3 | %17
w: |||
w: trea- sure thee; Fond- * ly|trea- sure thee; Bless- èd|Word of Life, I’ll|
w: |||
 [Gc]2 [FB] !fermata![Ec]7 |] %18
w: |
w: trea- sure thee.|
w: |
V:2
 x2 | x6 | x6 | x6 | x6 | x6 | x6 | x6 | x4 ||[M:9/8] x3 | x8 | x9 | x9 | ^F2 x7 | x9 | x9 | x9 | %17
 x10 |] %18
V:3
 [C,G,][C,G,] | [C,G,]2 [C,G,]2 [C,G,][C,C] | [C,C]2 [C,C]2 [C,G,][C,G,] | %3
 [G,,G,]2 [G,,G,]2 [A,,G,][B,,G,] | [C,G,]4 [C,G,][C,G,] | [C,C]2 [C,G,]2 [C,G,][C,C] | %6
 [C,C]2 [C,C]2 [C,G,][C,G,] | [D,G,]2 [D,B,]2 [D,D][D,D] | [G,,G,B,]4 ||[M:9/8] [G,,G,]2 [G,,G,] | %10
 [C,G,]2 [C,G,] [C,G,]2 [G,,G,]2 [G,,G,] | [C,G,]2 [C,G,] [C,C]3 [C,C]2 [C,C] | %12
 [C,C]2 [C,C] [C,C]3 [E,C]3 | [D,D]2 [D,D] [G,D]3 [G,B,]2 G, | %14
 [C,G,]2 [C,G,] [C,G,]3 [G,,G,]2 [G,,G,] | [C,G,]2 [C,G,] [C,C]3 [C,C]2 [C,C] | %16
 [C,C]2 [C,C] [C,C]3 [E,C]3 | [G,E]2 [G,D] !fermata![C,C]7 |] %18
V:4
 x2 | x6 | x6 | x6 | x6 | x6 | x6 | x6 | x4 ||[M:9/8] x3 | x8 | x9 | x9 | x8 G, | x9 | x9 | x9 | %17
 x10 |] %18

